teeny/solid/bottom-right.svg

<svg width="15" height="15" viewBox="0 0 15 15" fill="none" xmlns="http://www.w3.org/2000/svg">
<path fill-rule="evenodd" clip-rule="evenodd" d="M1.85355 1.14645L13 12.2929V8.00001H14V14H8V13H12.2929L1.14645 1.85356L1.85355 1.14645Z" fill="black"/>
</svg>

<svg viewBox="0 0 15 15" xmlns="http://www.w3.org/2000/svg"><path fill-rule="evenodd" d="M1.85 1.14l11.14 11.14v-4.3h1v5.99h-6v-1h4.29L1.13 1.82l.7-.71Z"/></svg>
